X:1

T:Bartholomew Fair

L:1/8

M:6/8

S:Chappell – Popular Music of the Olden Times  (1859)

Z:AK/Fiddler’s Companion

K:Eb

B/A/|G>FE EFG|A2G F2E|DFF F2G|A>Bc BGE|A>GA FBA|GEE E2||

G|A>Bc/d/ edc|BAG F2E|DFF F2 G/A/|B3 A3|G>AG FBA|GEE E2||

           

BARTLETT'S TWO-STEP. AKA and see "The Pennsylvania Quickstep [1]," "Minnie Moore."

           

BARWICK BILLY. AKA and see "Go to Berwick, Johnny," "Berwick Johnny," "Berwick Jockey [2]," "The New Road to Berwick." English, Double Hornpipe (3/4 time). England, Northumberland. F Major. Standard tuning. AABBCCDD. Double hornpipes are generally from Lancashire and Cheshire. "Barwick is an old spelling of Berwick (as in Berwick‑On‑Tweed). Time signature 6/8 (in William Vicker's original) but notes grouped in 3/4 throughout. This would appear to have been one of the most popular Double Hornpipes to judge by its many surviving versions; only the 'Dusty Miller' rivals it in this respect. Vicker's setting is the only one I have seen with four strains, others having two or three" (Seattle). Seattle (William Vickers), 1987, Part 2; No. 254. Stokoe & Bruce, Northumbrian Minstrelsy, 1882; pg. 18 (appears as "Go to Berwick, Johnnie"). Mooney, Choicest Scots Tunes, 1982; pg. 1 (appears as "Go to Berwick, Johnnie"). Seattle, Bewick's Pipe Tunes, 1986; No. 34 (appears as "Berwick Johnny"). Offord, John of the Greeny Cheshire Way, 1985; pg. 3 (appears as "Berwick Jockey").

           

BAS OSGAR. Scottish. Beltona BL2096, Edinburgh Highland Reel and Strathspey Society (1936).

           

BÁSAÍTEAR NA LACHAIN LÁ NOLLAG. AKA and see “The Ducks Die on Christmas Day.”

           

BASCADH THOMÁIS MHIC AN BHÁIRD (Tom Ward’s Downfall). AKA and see “Tom Ward’s Downfall.”

           

BASHFUL BACHELOR [1], THE. AKA and see "Courting Them All,” "Don't bother me," "The Moving Bog of Allen,"  "The Moving Bog(s) [2]" (Na Portaigh Chreathacha), "Rachel Rae.” Irish, Reel. D Major. Standard tuning. AB (O'Neill/1850): AA'B (O'Neill/Krassen). Source for notated version: Chicago Police Sergeant James O’Neill, a fiddler originally from County Down and Francis O’Neill’s collaborator [O’Neill]. O'Neill (Krassen), 1976; pg. 140. O'Neill (Music of Ireland: 1850 Melodies), 1903/1979; No. 1443, pg. 267. ‘Ón tSean-Am Anall’ (Danny O’Donnell).

